F[BALLADE
CUT[Die dienende Schwester
    Es wohnt ein Graf von eim andern Reich,]
CNR[der hat drei schoene Toechterlein,]
REG[Suedosteuropa, Jugoslawien, Batschka]
SRC[4, S. 104
    ????]
KEY[Q0075F 16  F 2/4]
MEL[5_  5_.43_55  4_.32_.
    3  4_.32_.1  -7_.-6-5_
    -7_  1__-5__  5_.65_4_  3__2__  1__0_ //] >>
FCT[Ballade, Adelige als Dienstmagd, Tod; Kinder - Spiel, Tanz]
CMT[Takt in der letzten Zeile traegt die Anmerkung "frei" .]
